F[ERK3
CUT[ALS CHRIST DER HERR IN GARTEN GING]
REG[Europa, Mitteleuropa, Deutschland, Schlesien]
KEY[E1959A 08  F 3/4]
MEL[  1_1_1_  5_.6b5_  5_.43b_  2__0_
    4_4_4_  4_.3b2_  3b_4_5_  1__
    5_  4_2_3b2  1__-7b_  3b__4_  5__0_
    5_5_5_  4__5_  3b_2_.1  1__0_ //] >>
FCT[geistlich, Fest - Lied, Biblischer Stoff, Passion]
